X: 115
T:Saturday Night, x115
T:. JaW.115
M:2/4
L:1/16
Q:1/4=80
S:James Winder Ms, Lancashire, 1835-41
R:Country Dance
O:England
A:Wyresdale,Lancashire
H:1/16
Z:vmp.Chris Partington, Aug 2004
K:F
c2(AB) c2fe|dBdg fedc|fgaf d2ga|bgaf fedc|!
c2(AB) c2fe|dBdg fedc|fgaf dbag|fage f4:|!
|:fagf gedc|gabg afcA|BdgB AcfA|GABc BAGF|!
fagf gedc|gabg agfe|fac_e dbag|gfge f4:|]
